assets/Dove/Flat/dove_flat.svg

<svg width="32" height="32" viewBox="0 0 32 32" fill="none" xmlns="http://www.w3.org/2000/svg">
<path d="M24.6178 18H29.0278C29.5778 18 30.0278 18.45 30.0278 19V20C30.0278 26 24.8978 30 20.0378 30C19.4778 30 19.0278 29.55 19.0278 29V27.11C19.0278 26.5 18.5278 26 17.9178 26H13.7878C8.39779 26 4.02779 21.63 4.02779 16.24V12.8013L3.24706 11.468L4.05573 9.99572C4.3064 7.74781 6.21299 6 8.52779 6C9.52319 6 10.4431 6.32319 11.1883 6.87035L11.5778 6.07991C12.9878 3.21991 16.0578 1.63991 19.1578 2.06991C19.6678 2.13991 20.0378 2.57991 20.0378 3.08991L20.0366 4.94982L21.0078 3.99C22.2978 2.71 24.0378 2 25.8478 2H27.7878C28.4678 2 29.0278 2.55 29.0278 3.24V7.02C29.0278 11.15 27.4178 15.07 24.6178 18Z" fill="#9B9B9B"/>
<path d="M23.8948 17.3091L22.2789 19H29.0278V20C29.0278 25.3766 24.4193 29 20.0378 29C20.0349 29 20.0326 28.9996 20.0326 28.9996L20.0309 28.9991L20.0278 28.997V27.11C20.0278 25.9477 19.0801 25 17.9178 25H13.7878C8.95006 25 5.02777 21.0777 5.02777 16.24V11.5093L5.05462 10.0635C5.26885 8.33694 6.74286 7 8.52777 7C9.8367 7 10.9792 7.71807 11.5806 8.78655L11.5971 8.81585L12.5612 10.2879L12.568 10.2982C13.2754 11.3497 14.7905 11.5485 15.7224 10.6196L15.7249 10.6171L21.7107 4.70125L21.7121 4.69985C22.8134 3.6071 24.2997 3 25.8478 3H27.7878C27.9207 3 28.0278 3.10753 28.0278 3.24V7.02C28.0278 10.8889 26.5196 14.5625 23.8948 17.3091Z" fill="white"/>
<path d="M2.53777 8C2.25777 8 2.03777 8.22 2.03777 8.5L2.02777 15.22C2.02777 16.33 2.61777 17.37 3.57777 17.93L5.08575 18.8022L4.38777 19.2699C3.53777 19.8299 3.02777 20.7899 3.02777 21.8199V23.5699C3.02777 23.9099 3.40777 24.1099 3.68777 23.9199L4.65777 23.2699C5.50777 22.7099 6.02777 21.7499 6.02777 20.7199V19.3471L8.12822 20.562C8.09522 20.7026 8.07776 20.8493 8.07776 21C8.07776 22.0548 8.93289 22.91 9.98776 22.91C10.1602 22.91 10.3273 22.8871 10.4862 22.8443L10.4878 22.85L11.8478 22.48C12.1178 22.4 12.2778 22.13 12.2078 21.86L11.8378 20.5L11.8321 20.5015C11.6129 19.6884 10.8702 19.09 9.98776 19.09C9.44363 19.09 8.95264 19.3175 8.60476 19.6826L4.08777 17.07C4.04976 17.0478 4.01256 17.0244 3.97623 17H5.19777C6.22777 17 7.18777 16.49 7.75777 15.63L8.40777 14.66C8.59777 14.38 8.38777 14 8.04777 14H6.29777C5.26777 14 4.30777 14.51 3.74777 15.37L3.23466 16.1357C3.10101 15.8535 3.02777 15.5412 3.02777 15.22L3.03777 8.5C3.03777 8.22 2.80777 8 2.53777 8Z" fill="#44911B"/>
<path d="M8.02777 12C8.58006 12 9.02777 11.5523 9.02777 11C9.02777 10.4477 8.58006 10 8.02777 10C7.47549 10 7.02777 10.4477 7.02777 11C7.02777 11.5523 7.47549 12 8.02777 12Z" fill="#212121"/>
<path d="M4.05651 9.98853L2.20778 11.1099C1.97778 11.2499 1.97778 11.5799 2.20778 11.7199L4.02777 12.808V10.4999C4.02777 10.327 4.03752 10.1564 4.05651 9.98853Z" fill="#F9C23C"/>
</svg>

<svg xmlns="http://www.w3.org/2000/svg" width="32" height="32" fill="none"><path fill="#9B9B9B" d="M24.618 18h4.41c.55 0 1 .45 1 1v1c0 6-5.13 10-9.99 10-.56 0-1.01-.45-1.01-1v-1.89c0-.61-.5-1.11-1.11-1.11h-4.13c-5.39 0-9.76-4.37-9.76-9.76v-3.439l-.78-1.333.808-1.472a4.5 4.5 0 0 1 7.132-3.126l.39-.79a7.321 7.321 0 0 1 7.58-4.01c.51.07.88.51.88 1.02l-.001 1.86.97-.96A6.866 6.866 0 0 1 25.848 2h1.94c.68 0 1.24.55 1.24 1.24v3.78c0 4.13-1.61 8.05-4.41 10.98Z"/><path fill="#fff" d="M23.895 17.31 22.279 19h6.749v1c0 5.377-4.609 9-8.99 9h-.007l-.003-.003V27.11c0-1.162-.948-2.11-2.11-2.11h-4.13a8.76 8.76 0 0 1-8.76-8.76v-4.73l.027-1.447a3.5 3.5 0 0 1 6.526-1.276l.016.029.964 1.472.007.01c.707 1.052 2.223 1.25 3.154.322l.003-.003 5.986-5.916.001-.001A5.867 5.867 0 0 1 25.848 3h1.94a.24.24 0 0 1 .24.24v3.78c0 3.869-1.508 7.543-4.133 10.29Z"/><path fill="#44911B" d="M2.538 8c-.28 0-.5.22-.5.5l-.01 6.72c0 1.11.59 2.15 1.55 2.71l1.508.872-.698.468c-.85.56-1.36 1.52-1.36 2.55v1.75c0 .34.38.54.66.35l.97-.65c.85-.56 1.37-1.52 1.37-2.55v-1.373l2.1 1.215a1.91 1.91 0 0 0 2.358 2.282l.002.006 1.36-.37c.27-.08.43-.35.36-.62l-.37-1.36-.006.002a1.91 1.91 0 0 0-3.227-.82L4.088 17.07a2.098 2.098 0 0 1-.112-.07h1.222c1.03 0 1.99-.51 2.56-1.37l.65-.97c.19-.28-.02-.66-.36-.66h-1.75c-1.03 0-1.99.51-2.55 1.37l-.513.766a2.14 2.14 0 0 1-.207-.916l.01-6.72c0-.28-.23-.5-.5-.5Z"/><path fill="#212121" d="M8.028 12a1 1 0 1 0 0-2 1 1 0 0 0 0 2Z"/><path fill="#F9C23C" d="m4.057 9.989-1.85 1.12c-.23.14-.23.47 0 .61l1.82 1.089V10.5c0-.173.01-.344.03-.511Z"/></svg>
